X:293
T:Skräddarpolskan.
R:polska
S:Efter »Florsen» i Burs
N:(»Aldri har ja säggt, u aldri ska ja sägä» etc.; fortsättningen av täxten ej lämplig för publicering).
O:Gotland, Burs
M:3/4
L:1/16
K:G
G2GA B2BA B2G2|B2Bc d2d^c d2B2|
d2ef g4 d3c|1 B2A2 G2GD B,2G,2:|2 B2A2 G4 z4::
B2B2 cBAG A2A2|B2B2 cBAG A2A2|LB4 Lc4 B2d2|dcAF G2GD CB,A,G,|
B2B2 cBAG A2A2|B2B2 cBAG A4|B2B2 c2c2 B2d2|dcAF G4 G,4:|

